X: 32967
T: Preston Guild
R: jig
M: 6/8
K: Gmajor
|:"G"dBG "D7"A2G|"G"dBG "D7"A2G|"C"cBA Ged|"D7"cBA "G"G3|
"G"dBG "D7"A2G|"G"dBG "D7"A2G|"G"gfg "C"efg|"A7"Ad^c "D7"d3:|
|:"G7"de=f "C"c2B|"C"de=f c2B|"Am"cBc "D7"EFG|"G"ABc "D7"DFA|
"G"BG "D7"A2G|"C"gfe dcB|"D7"AGF "G"G3:|

